X:129
T:Smiling Polly
M:2/4
L:1/8
B:Thompson's Compleat Collection of 200 Favourite Country Dances, vol. 2 (London, 1765)
Z:Transcribed and edited by Flynn Titford-Mock, 2007
Z:abc's:AK/Fiddler's Companion
K:D
[D2A2f2] df | g2 eg | [D2A2f2] df | e/d/c/B/ A2 | [D2A2f2] df | g2 eg | fa Ac | d2 D2 :|
|: FDAF | dA g2 | fed cd | e/d/c/B/ A2 | FDAF | dA g2 | fg/a/ Ac | d2D2 :|

